symbolic/22x22/apps/flamerobin.svg

<svg xmlns="http://www.w3.org/2000/svg" width="22" height="22" version="1.1">
 <circle cx="11" cy="11.5" r="10" style="opacity:0.2"/>
 <circle cx="11" cy="11" r="10" style="fill:#e4e4e4"/>
 <path style="opacity:0.1" d="m 11.114258,4.4996 c -0.798046,0 -0.906658,0.03872 -0.990234,0.350586 -0.28109,1.048871 0.0599,2.7176555 0.736328,3.604492 0.234423,0.3073425 0.916181,0.787116 1.686523,1.185547 0.71133,0.367911 1.491632,0.833806 1.734375,1.035156 0.242749,0.20135 0.500431,0.329551 0.572266,0.285156 0.321509,-0.198702 0.658742,-1.700819 0.579101,-2.579101 C 15.225488,6.097192 13.448234,4.4996 11.114258,4.4996 Z M 9.435547,4.8355375 8.821289,5.173428 C 7.6895665,5.796771 6.7456235,7.220562 6.267578,9.024014 5.945595,10.238718 5.906991,12.667021 6.191406,13.84921 c 0.560556,2.33003 1.904181,3.998373 3.638672,4.517577 0.218114,0.06529 0.835795,0.125448 1.372071,0.132813 2.504649,0.03438 4.532207,-2.150676 4.276366,-4.608398 C 15.302503,12.200345 14.52621,11.274168 12.368164,10.177335 10.255406,9.103518 9.51181,8.001631 9.460938,5.8736235 Z M 13.5,6.4996 a 0.5,0.5 0 0 1 0.5,0.5 0.5,0.5 0 0 1 -0.5,0.5 0.5,0.5 0 0 1 -0.5,-0.5 0.5,0.5 0 0 1 0.5,-0.5 z m 2.081054,0.248047 c -0.03806,0.017875 -0.02627,0.080072 0.01758,0.194336 0.05663,0.147586 0.143924,0.5696795 0.194336,0.9375 0.05042,0.3678195 0.147068,0.6679685 0.213867,0.6679685 0.0668,0 0.342364,-0.2800045 0.613281,-0.6220705 L 17.113282,7.3042875 16.672853,7.1324125 C 16.430532,7.0381645 16.066711,6.896075 15.864258,6.816983 15.707517,6.7557485 15.619112,6.7297705 15.581054,6.747647 Z"/>
 <path d="M 11,1 A 10,10 0 0 0 1,11 10,10 0 0 0 1.01075,11.291 10,10 0 0 1 11,1.5 10,10 0 0 1 20.9895,11.209 10,10 0 0 0 21,11 10,10 0 0 0 11,1 Z" style="opacity:0.2;fill:#ffffff"/>
 <path style="fill:#f03b43" d="M 9.830352,17.867505 C 8.0958605,17.3483 6.7521325,15.680106 6.1915765,13.350076 5.9071615,12.167887 5.9452285,9.739336 6.2672115,8.5246325 6.745257,6.7211805 7.689898,5.297093 8.8216205,4.67375 L 9.435829,4.335452 9.460679,5.3743995 c 0.05087,2.1280075 0.795002,3.229203 2.907761,4.3030195 2.158046,1.096833 2.933717,2.023261 3.10973,3.714117 0.255841,2.457722 -1.771526,4.64244 -4.276175,4.608064 -0.536276,-0.0074 -1.153513,-0.0668 -1.371627,-0.132095 z"/>
 <path d="m 12.595541,16.916441 c 1.06887,-1.260742 -0.131456,-4.078117 -1.842533,-4.324759 L 10.116966,12.5 l 0.241171,0.501197 c 0.319478,0.663938 0.303403,1.134196 -0.06071,1.775996 -0.165415,0.291567 -0.299252,0.801586 -0.297408,1.133373 0.0084,1.51541 1.630563,2.144059 2.595524,1.005875 z" style="opacity:0.2"/>
 <path style="fill:#ffff00" d="M 12.595541,16.416441 C 13.664411,15.1557 12.464085,12.338325 10.753009,12.091682 L 10.116966,12 l 0.241172,0.501198 c 0.319478,0.663938 0.303402,1.134195 -0.06071,1.775995 -0.165415,0.291568 -0.299251,0.801586 -0.297408,1.133373 0.0084,1.51541 1.630563,2.144059 2.595524,1.005875 z"/>
 <path style="fill:#404040" d="m 11.114258,4 c -0.798046,0 -0.906658,0.03872 -0.990234,0.350586 -0.28109,1.048871 0.0599,2.7176555 0.736328,3.604492 0.234423,0.3073425 0.916181,0.7871155 1.686523,1.185547 0.71133,0.367912 1.491632,0.833807 1.734375,1.035156 0.242749,0.20135 0.500431,0.329552 0.572266,0.285157 0.321509,-0.198703 0.658742,-1.70082 0.579101,-2.579102 C 15.225488,5.597592 13.448234,4 11.114258,4 Z M 13.5,6 A 0.5,0.5 0 0 1 14,6.5 0.5,0.5 0 0 1 13.5,7 0.5,0.5 0 0 1 13,6.5 0.5,0.5 0 0 1 13.5,6 Z"/>
 <path style="fill:#404040" d="M 15.7933,7.379431 C 15.742888,7.0116105 15.655301,6.5899145 15.598669,6.4423285 15.510976,6.213802 15.550314,6.1953255 15.863796,6.317794 16.066248,6.396886 16.43015,6.53871 16.672468,6.632958 l 0.440577,0.1713605 -0.492589,0.621938 C 16.349539,7.768322 16.073219,8.048194 16.00642,8.048194 c -0.0668,0 -0.162703,-0.3009435 -0.21312,-0.668763 z"/>
</svg>

<svg xmlns="http://www.w3.org/2000/svg" width="22" height="22"><circle cx="11" cy="11.5" r="10" style="opacity:.2"/><circle cx="11" cy="11" r="10" style="fill:#e4e4e4"/><path style="opacity:.1" d="M11.114 4.5c-.798 0-.906.038-.99.35-.281 1.05.06 2.718.736 3.605.235.307.917.787 1.687 1.185.711.368 1.492.834 1.734 1.035.243.202.5.33.573.286.321-.2.658-1.701.579-2.58-.208-2.284-1.985-3.881-4.319-3.881zm-1.678.336-.615.337c-1.131.624-2.075 2.048-2.553 3.851-.322 1.215-.361 3.643-.077 4.825.561 2.33 1.905 3.999 3.64 4.518.217.065.835.125 1.371.133 2.505.034 4.532-2.151 4.277-4.609-.176-1.69-.953-2.617-3.11-3.714-2.114-1.073-2.857-2.175-2.908-4.303zM13.5 6.5a.5.5 0 0 1 .5.5.5.5 0 0 1-.5.5.5.5 0 0 1-.5-.5.5.5 0 0 1 .5-.5zm2.081.248c-.038.018-.026.08.018.194.056.148.144.57.194.937.05.368.147.668.214.668s.342-.28.613-.622l.493-.62-.44-.173-.809-.315c-.156-.061-.245-.087-.283-.07z"/><path d="M11 1A10 10 0 0 0 1 11a10 10 0 0 0 .01.291A10 10 0 0 1 11 1.5a10 10 0 0 1 9.99 9.709A10 10 0 0 0 21 11 10 10 0 0 0 11 1z" style="opacity:.2;fill:#fff"/><path style="fill:#f03b43" d="M9.83 17.868c-1.734-.52-3.078-2.188-3.638-4.518-.285-1.182-.247-3.61.075-4.825.478-1.804 1.423-3.228 2.555-3.851l.614-.339.025 1.04c.05 2.127.795 3.229 2.907 4.302 2.158 1.097 2.934 2.024 3.11 3.715.256 2.457-1.771 4.642-4.276 4.608-.536-.008-1.154-.067-1.372-.132z"/><path d="M12.596 16.916c1.068-1.26-.132-4.078-1.843-4.324l-.636-.092.241.501c.32.664.304 1.134-.06 1.776-.166.292-.3.802-.298 1.134.008 1.515 1.63 2.144 2.596 1.005z" style="opacity:.2"/><path style="fill:#ff0" d="M12.596 16.416c1.068-1.26-.132-4.078-1.843-4.324L10.117 12l.241.501c.32.664.304 1.134-.06 1.776-.166.292-.3.802-.298 1.134.008 1.515 1.63 2.144 2.596 1.005z"/><path style="fill:#404040" d="M11.114 4c-.798 0-.906.039-.99.35-.281 1.05.06 2.718.736 3.605.235.307.917.787 1.687 1.186.711.368 1.492.833 1.734 1.035.243.201.5.33.573.285.321-.199.658-1.7.579-2.58C15.225 5.599 13.448 4 11.114 4zM13.5 6a.5.5 0 0 1 .5.5.5.5 0 0 1-.5.5.5.5 0 0 1-.5-.5.5.5 0 0 1 .5-.5zM15.793 7.38c-.05-.368-.138-.79-.194-.938-.088-.228-.049-.247.265-.124l.808.315.441.171-.493.622c-.27.342-.547.622-.614.622-.066 0-.162-.3-.213-.669z"/></svg>
